X:1
T:Caritas,  84.84.88.84
T:Caritas,  84.84.88.84
T:Richard William Beaty, 1830
T:Public Domain Courtesy of the Cyber Hymnal™
C:Richard William Beaty, 1830
Z:Public Domain
Z:Courtesy of the Cyber Hymnal™
%%score ( 1 2 ) ( 3 4 )
L:1/8
Q:1/4=110
M:4/4
K:F
V:1 treble 
V:2 treble 
V:3 bass 
V:4 bass 
V:1
 F3 [FG] [FA]2 [Fc]2 | [Fd]3 [Fc] [Fc]2 [FA]2 | [FA]4 [EA]3 [EG] | F8 | F3 [FG] [FA]2 [Fc]2 | %5
 [Fd]3 [Fc] [Fc]2 [FA]2 | [FA]4 [EA]3 [EG] | F8 | [Ff]3 [Fe] [Fd]2 [Fc]2 | [Fd]3 [Fc] [Fc]2 [FA]2 | %10
 [Gc]2 [FA]2 [Af]3 [Ge] | [Fd]2 [E^c]2 [Fd]2 [FA]2 | F3 [FG] [FA]2 [Fc]2 | [Fd]3 [Ec] [Fc]2 [FA]2 | %14
 [FA]4 [EA]3 [EG] | F8 |] %16
V:2
 F3 x5 | x8 | x8 | F8 | F3 x5 | x8 | x8 | F8 | x8 | x8 | x8 | x8 | F3 x5 | x8 | x8 | F8 |] %16
V:3
 [F,A,]3 [F,B,] [F,C]2 [F,A,]2 | [F,B,]3 [F,A,] [F,A,]2 [F,C]2 | C4 [C,B,]3 [C,B,] | [F,A,]8 | %4
 [F,A,]3 [F,B,] [F,C]2 [F,A,]2 | [F,B,]3 [F,A,] [F,A,]2 [F,C]2 | C4 [C,B,]3 [C,B,] | [F,A,]8 | %8
 [F,A,]3 [A,C] B,2 [F,A,]2 | [B,,B,]3 [F,A,] [F,A,]2 [F,C]2 | [E,C]2 [F,C]2 [D,D]3 [G,B,] | %11
 A,2 [A,,A,]2 [D,A,]2 [D,A,]2 | [F,A,]3 [F,B,] [F,C]2 [F,B,]2 | [B,,B,]3 [C,G,] [F,A,]2 [F,C]2 | %14
 C4 [C,B,]3 [C,B,] | [F,A,]8 |] %16
V:4
 x8 | x8 | (F,2 A,,2) x4 | x8 | x8 | x8 | (F,2 A,,2) x4 | x8 | x4 B,2 x2 | x8 | x8 | A,2 x6 | x8 | %13
 x8 | (F,2 A,,2) x4 | x8 |] %16

